src/app/assets/icon/tarjeta-icon.svg

<svg width="34" height="32" viewBox="0 0 34 32" fill="none" xmlns="http://www.w3.org/2000/svg">
<g id="Capa_1" clip-path="url(#clip0_2044_172)">
<path id="Vector" d="M32.0893 0H1.9107C0.857213 0 0 0.848309 0 1.89085V21.8286C0 22.8711 0.857213 23.7194 1.9107 23.7194H3.82643V22.7582H1.9107C1.39234 22.7582 0.971285 22.3416 0.971285 21.8286V1.89085C0.971285 1.37788 1.39234 0.961195 1.9107 0.961195H32.091C32.6093 0.961195 33.0304 1.37788 33.0304 1.89085V21.8286C33.0304 22.3416 32.6093 22.7582 32.091 22.7582H19.2881V23.7194H32.091C33.1445 23.7194 34.0017 22.8711 34.0017 21.8286V1.89085C34.0017 0.848309 33.1445 0 32.091 0H32.0893Z" fill="#FFD95D"/>
<path id="Vector_2" d="M31.4699 4.92554H2.5293V5.88673H31.4699V4.92554Z" fill="#FFD95D"/>
<path id="Vector_3" d="M31.4699 9.63184H2.5293V10.593H31.4699V9.63184Z" fill="#FFD95D"/>
<path id="Vector_4" d="M17.3456 21.153H16.2384V18.877C16.2384 16.3221 14.1381 14.2454 11.5581 14.2454C8.97808 14.2454 6.87615 16.3238 6.87615 18.877V21.153H5.76898C5.50058 21.153 5.28418 21.3672 5.28418 21.6328V30.0594C5.28418 31.1302 6.1632 32.0001 7.2452 32.0001H15.871C16.953 32.0001 17.832 31.1302 17.832 30.0594V21.6328C17.832 21.3672 17.6156 21.153 17.3472 21.153H17.3456ZM16.8591 22.7583V30.0594C16.8591 30.599 16.4145 31.0389 15.8693 31.0389H7.24352C6.69833 31.0389 6.25379 30.599 6.25379 30.0594V22.1126H16.8608V22.7583H16.8591ZM7.84575 19.7121V18.877C7.84575 16.8517 9.50986 15.2049 11.5564 15.2049C13.603 15.2049 15.2671 16.8517 15.2671 18.877V21.153H7.84575V19.7121Z" fill="#FFD95D"/>
<path id="Vector_5" d="M11.5561 28.7347C11.8245 28.7347 12.0409 28.5205 12.0409 28.2549V25.1621C12.0409 24.8965 11.8245 24.6824 11.5561 24.6824C11.2877 24.6824 11.0713 24.8965 11.0713 25.1621V28.2549C11.0713 28.5205 11.2877 28.7347 11.5561 28.7347Z" fill="#FFD95D"/>
<path id="Vector_6" d="M28.7111 15.1865H21.4223C21.1539 15.1865 20.9375 15.4007 20.9375 15.6663C20.9375 15.9319 21.1539 16.1461 21.4223 16.1461H28.7111C28.9795 16.1461 29.1959 15.9319 29.1959 15.6663C29.1959 15.4007 28.9795 15.1865 28.7111 15.1865Z" fill="#FFD95D"/>
<path id="Vector_7" d="M28.7111 17.71H21.4223C21.1539 17.71 20.9375 17.9241 20.9375 18.1897C20.9375 18.4553 21.1539 18.6695 21.4223 18.6695H28.7111C28.9795 18.6695 29.1959 18.4553 29.1959 18.1897C29.1959 17.9241 28.9795 17.71 28.7111 17.71Z" fill="#FFD95D"/>
</g>
<defs>
<clipPath id="clip0_2044_172">
<rect width="34" height="32" fill="white"/>
</clipPath>
</defs>
</svg>

<?xml version="1.0" encoding="utf-8"?>
<!-- Generator: Adobe Illustrator 28.2.0, SVG Export Plug-In . SVG Version: 6.00 Build 0)  -->
<svg version="1.1" id="Capa_1" xmlns="http://www.w3.org/2000/svg" xmlns:xlink="http://www.w3.org/1999/xlink" x="0px" y="0px"
	 viewBox="0 0 34 32" style="enable-background:new 0 0 34 32;" xml:space="preserve">
<style type="text/css">
	.st0{fill:#FFFFFF;}
</style>
<g>
	<g id="Capa_1_00000133514811649809987120000010661905461054886298_">
		<path id="Vector" class="st0" d="M32.1,0H1.9C0.9,0,0,0.8,0,1.9v19.9c0,1,0.9,1.9,1.9,1.9h1.9v-1H1.9c-0.5,0-0.9-0.4-0.9-0.9V1.9
			C1,1.4,1.4,1,1.9,1h30.2C32.6,1,33,1.4,33,1.9v19.9c0,0.5-0.4,0.9-0.9,0.9H19.3v1h12.8c1.1,0,1.9-0.8,1.9-1.9V1.9
			C34,0.8,33.1,0,32.1,0L32.1,0z"/>
		<path id="Vector_2" class="st0" d="M31.5,4.9H2.5v1h28.9V4.9z"/>
		<path id="Vector_3" class="st0" d="M31.5,9.6H2.5v1h28.9V9.6z"/>
		<path id="Vector_4" class="st0" d="M17.3,21.2h-1.1v-2.3c0-2.6-2.1-4.6-4.7-4.6c-2.6,0-4.7,2.1-4.7,4.6v2.3H5.8
			c-0.3,0-0.5,0.2-0.5,0.5v8.4c0,1.1,0.9,1.9,2,1.9h8.6c1.1,0,2-0.9,2-1.9v-8.4C17.8,21.4,17.6,21.2,17.3,21.2L17.3,21.2z
			 M16.9,22.8v7.3c0,0.5-0.4,1-1,1H7.2c-0.5,0-1-0.4-1-1v-7.9h10.6L16.9,22.8L16.9,22.8z M7.8,19.7v-0.8c0-2,1.7-3.7,3.7-3.7
			c2,0,3.7,1.6,3.7,3.7v2.3H7.8V19.7z"/>
		<path id="Vector_5" class="st0" d="M11.6,28.7c0.3,0,0.5-0.2,0.5-0.5v-3.1c0-0.3-0.2-0.5-0.5-0.5s-0.5,0.2-0.5,0.5v3.1
			C11.1,28.5,11.3,28.7,11.6,28.7z"/>
		<path id="Vector_6" class="st0" d="M28.7,15.2h-7.3c-0.3,0-0.5,0.2-0.5,0.5s0.2,0.5,0.5,0.5h7.3c0.3,0,0.5-0.2,0.5-0.5
			S29,15.2,28.7,15.2z"/>
		<path id="Vector_7" class="st0" d="M28.7,17.7h-7.3c-0.3,0-0.5,0.2-0.5,0.5c0,0.3,0.2,0.5,0.5,0.5h7.3c0.3,0,0.5-0.2,0.5-0.5
			C29.2,17.9,29,17.7,28.7,17.7z"/>
	</g>
</g>
</svg>
